!! 00000] TT[WS
!!!OTL: Hengjiang lou
!!!ARE: Asia, China, Shanxi Zuoquan
!! Ethnic Group: Han
!! WII, 183
!!!SCT: J0678
!!!YEM: Copyright 1995, estate of Helmut Schaffrath.
**kern
*ICvox
*Ivox
*M2/4
*k[b-]
*F:
{8dd
8cc
8a
8cc
=1
2dd
=2
4ff
4ff
=3
8dd
8ff
8dd
8cc
=4
8cc
8a
8g
8a
=5
2cc}
=6
{8dd
8ff
8dd
8cc
=7
8cc
4a
8g
=8
2a}
=9
{8a
8g
8f
8g
=10
4.a
8r
=11
8cc
8dd
8cc
8a
=12
8g
8a
8g
8f
=13
8e
8d
8c
8d
=14
2f}
=15
{8g
8a
8g
8f
=16
8f
4d
8c
=17
2d}
==
!!!AGN: Xiaodiao. Sichun
!!!ONB: ESAC (Essen Associative Code) Database: CHINA
!!!AMT: simple duple
!!!AIN: vox
!!!EED: Helmut Schaffrath
!!!EEV: 1.0
*-
